X:1
T:Fillmore, 88.88.88
T:Fillmore, 88.88.88
T:Jeremiah Ingalls (1764–1828)
T:Public Domain Courtesy of the Cyber Hymnal™
C:Jeremiah Ingalls (1764–1828)
Z:Public Domain
Z:Courtesy of the Cyber Hymnal™
%%score ( 1 2 ) ( 3 4 )
L:1/8
M:3/4
K:F
V:1 treble 
V:2 treble 
V:3 bass 
V:4 bass 
V:1
 F2 | (A3 G) F2 | [EG]4 [EA]2 | [EG]4 [DF]2 | [EG]4 [FA]2 | [Fc]4 [Fc]2 | (c2 d2) [Fc]2 | %7
 [FA]4 [EG]2 | F4 [Fc]2 | [Fd]4 [Fd]2 | (d3 e) [Ff]2 | [Ac]4 [Ac]2 | [FA]4 [Fc]2 | [Fd]4 [Fd]2 | %14
 (d3 e) [Ff]2 | [Fc]4 [Fc]2 | [FA]2 !fermata![EG]2 F2 | (A3 G) F2 | [EG]4 [EA]2 | [EG]4 [DF]2 | %20
 [EG]4 [FA]2 | [Fc]4 [Fc]2 | (c2 d2) [Fc]2 | [FA]4 [EG]2 | F4 |] %25
V:2
 F2 | F4 F2 | x6 | x6 | x6 | x6 | F4 x2 | x6 | F4 x2 | x6 | F4 x2 | x6 | x6 | x6 | F4 x2 | x6 | %16
 x4 F2 | F4 F2 | x6 | x6 | x6 | x6 | F4 x2 | x6 | F4 |] %25
V:3
 [F,A,]2 | (C3 B,) [F,A,]2 | [C,B,]4 [C,C]2 | [C,B,]4 [D,A,]2 | [C,C]4 [F,C]2 | [F,A,]4 [F,A,]2 | %6
 (A,2 B,2) [F,A,]2 | [C,C]4 [C,B,]2 | [F,A,]4 [F,A,]2 | B,4 B,2 | (B,3 C) [B,,D]2 | [F,F]4 [F,F]2 | %12
 [F,C]4 [F,A,]2 | B,4 B,2 | (B,3 C) [B,,D]2 | [F,A,]4 [F,A,]2 | C4 !fermata![F,A,]2 | %17
 (C3 B,) [F,A,]2 | [C,B,]4 [C,C]2 | [C,B,]4 [D,A,]2 | [C,C]4 [F,C]2 | [F,A,]4 [F,A,]2 | %22
 (A,2 B,2) [F,A,]2 | [C,C]4 [C,B,]2 | [F,A,]4 |] %25
V:4
 x2 | F,4 x2 | x6 | x6 | x6 | x6 | F,4 x2 | x6 | x6 | B,4 B,2 | B,4 x2 | x6 | x6 | B,4 B,2 | %14
 B,4 x2 | x6 | F,2 C,2 x2 | F,4 x2 | x6 | x6 | x6 | x6 | F,4 x2 | x6 | x4 |] %25

